src/Pure/16/symbolic/categories/xapp-prefs-plugins-symbolic.svg

<svg width="16" height="16" version="1.1" viewBox="0 0 16 16">
 <path d="m7 0c-1.108 0-2 0.892-2 2v1h-2.1543c-1.0228 0-1.8457 0.82293-1.8457 1.8457v2.1543 1h2c0.554 0 1 0.446 1 1s-0.446 1-1 1h-2v1 2.1543c0 1.0228 0.82293 1.8457 1.8457 1.8457h2.1543 1v-2c0-0.554 0.446-1 1-1s1 0.446 1 1v2h1 2.1543c1.0228 0 1.8457-0.82293 1.8457-1.8457v-2.1543h1c1.108 0 2-0.892 2-2s-0.892-2-2-2h-1v-2.1543c0-1.0228-0.82293-1.8457-1.8457-1.8457h-2.1543v-1c0-1.108-0.892-2-2-2zm0 1c0.554 0 1 0.446 1 1v2h1 2c0.554 0 1 0.446 1 1v2 1h2c0.554 0 1 0.446 1 1s-0.446 1-1 1h-2v1 2c0 0.554-0.446 1-1 1h-2v-1c0-1.108-0.892-2-2-2s-2 0.892-2 2v1h-2c-0.554 0-1-0.446-1-1v-2h1c1.108 0 2-0.892 2-2s-0.892-2-2-2h-1v-2c0-0.554 0.446-1 1-1h2 1v-2c0-0.554 0.446-1 1-1z" fill="#363636"/>
</svg>

<?xml version="1.0" encoding="UTF-8" standalone="no"?>
<svg
   width="16"
   height="16"
   version="1.1"
   viewBox="0 0 16 16"
   id="svg1"
   sodipodi:docname="xapp-prefs-plugins-symbolic.svg"
   inkscape:version="1.4.2 (ebf0e940d0, 2025-05-08)"
   xmlns:inkscape="http://www.inkscape.org/namespaces/inkscape"
   xmlns:sodipodi="http://sodipodi.sourceforge.net/DTD/sodipodi-0.dtd"
   xmlns="http://www.w3.org/2000/svg"
   xmlns:svg="http://www.w3.org/2000/svg">
  <defs
   id="defs1">
   <style id="current-color-scheme" type="text/css">
    .ColorScheme-Text { color:#363636; }
   </style>
  </defs>
  <sodipodi:namedview
     id="namedview1"
     pagecolor="#ffffff"
     bordercolor="#000000"
     borderopacity="0.25"
     inkscape:showpageshadow="2"
     inkscape:pageopacity="0.0"
     inkscape:pagecheckerboard="0"
     inkscape:deskcolor="#d1d1d1"
     inkscape:zoom="17.567184"
     inkscape:cx="1.9923512"
     inkscape:cy="9.1363533"
     inkscape:window-width="1920"
     inkscape:window-height="1010"
     inkscape:window-x="0"
     inkscape:window-y="0"
     inkscape:window-maximized="1"
     inkscape:current-layer="svg1" />
  <path
     id="path1"
     style="fill:currentColor"
     class="ColorScheme-Text"
     d="M 7 0 C 5.892 0 5 0.892 5 2 L 5 3 L 2.8457031 3 C 1.8229031 3 1 3.8229331 1 4.8457031 L 1 7 L 1 8 L 3 8 C 3.554 8 4 8.446 4 9 C 4 9.554 3.554 10 3 10 L 1 10 L 1 11 L 1 13.154297 C 1 14.177097 1.8229331 15 2.8457031 15 L 5 15 L 6 15 L 6 13 C 6 12.446 6.446 12 7 12 C 7.554 12 8 12.446 8 13 L 8 15 L 9 15 L 11.154297 15 C 12.177097 15 13 14.177067 13 13.154297 L 13 11 L 14 11 C 15.108 11 16 10.108 16 9 C 16 7.892 15.108 7 14 7 L 13 7 L 13 4.8457031 C 13 3.8229031 12.177067 3 11.154297 3 L 9 3 L 9 2 C 9 0.892 8.108 0 7 0 z M 7 1 C 7.554 1 8 1.446 8 2 L 8 4 L 9 4 L 11 4 C 11.554 4 12 4.446 12 5 L 12 7 L 12 8 L 14 8 C 14.554 8 15 8.446 15 9 C 15 9.554 14.554 10 14 10 L 12 10 L 12 11 L 12 13 C 12 13.554 11.554 14 11 14 L 9 14 L 9 13 C 9 11.892 8.108 11 7 11 C 5.892 11 5 11.892 5 13 L 5 14 L 3 14 C 2.446 14 2 13.554 2 13 L 2 11 L 3 11 C 4.108 11 5 10.108 5 9 C 5 7.892 4.108 7 3 7 L 2 7 L 2 5 C 2 4.446 2.446 4 3 4 L 5 4 L 6 4 L 6 2 C 6 1.446 6.446 1 7 1 z " />
</svg>
